germany/municipalities/07235058.svg

<?xml version="1.0" encoding="UTF-8" standalone="no"?>
<!-- Created with Inkscape (http://www.inkscape.org/) -->

<svg
   xmlns:dc="http://purl.org/dc/elements/1.1/"
   xmlns:cc="http://creativecommons.org/ns#"
   xmlns:rdf="http://www.w3.org/1999/02/22-rdf-syntax-ns#"
   xmlns:svg="http://www.w3.org/2000/svg"
   xmlns="http://www.w3.org/2000/svg"
   xmlns:sodipodi="http://sodipodi.sourceforge.net/DTD/sodipodi-0.dtd"
   xmlns:inkscape="http://www.inkscape.org/namespaces/inkscape"
   width="132.75894mm"
   height="158.65759mm"
   viewBox="0 0 132.75894 158.65759"
   version="1.1"
   id="svg865"
   inkscape:version="0.92.5 (2060ec1f9f, 2020-04-08)"
   sodipodi:docname="DEU Kell am See COA.svg">
  <defs
     id="defs859">
    <inkscape:path-effect
       effect="spiro"
       id="path-effect1171"
       is_visible="true" />
    <inkscape:path-effect
       effect="spiro"
       id="path-effect1148"
       is_visible="true" />
    <inkscape:path-effect
       effect="spiro"
       id="path-effect1087"
       is_visible="true" />
    <inkscape:path-effect
       effect="spiro"
       id="path-effect3644"
       is_visible="true" />
    <inkscape:path-effect
       effect="spiro"
       id="path-effect3636"
       is_visible="true" />
    <inkscape:path-effect
       effect="spiro"
       id="path-effect3544"
       is_visible="true" />
    <inkscape:path-effect
       effect="spiro"
       id="path-effect3466"
       is_visible="true" />
    <inkscape:path-effect
       effect="spiro"
       id="path-effect3544-2"
       is_visible="true" />
    <inkscape:path-effect
       effect="spiro"
       id="path-effect3644-8"
       is_visible="true" />
    <inkscape:path-effect
       effect="spiro"
       id="path-effect3644-3"
       is_visible="true" />
    <inkscape:path-effect
       effect="spiro"
       id="path-effect3636-0"
       is_visible="true" />
    <inkscape:path-effect
       effect="spiro"
       id="path-effect1727-0-1"
       is_visible="true" />
    <inkscape:path-effect
       effect="spiro"
       id="path-effect1731-8-3"
       is_visible="true" />
    <inkscape:path-effect
       effect="spiro"
       id="path-effect1727-3"
       is_visible="true" />
    <inkscape:path-effect
       effect="spiro"
       id="path-effect1731-7"
       is_visible="true" />
    <inkscape:path-effect
       effect="spiro"
       id="path-effect841-8"
       is_visible="true" />
    <inkscape:path-effect
       effect="spiro"
       id="path-effect1148-8"
       is_visible="true" />
    <inkscape:path-effect
       effect="spiro"
       id="path-effect1171-9"
       is_visible="true" />
  </defs>
  <sodipodi:namedview
     id="base"
     pagecolor="#ffffff"
     bordercolor="#666666"
     borderopacity="1.0"
     inkscape:pageopacity="0.0"
     inkscape:pageshadow="2"
     inkscape:zoom="1.3224364"
     inkscape:cx="250.88303"
     inkscape:cy="299.82538"
     inkscape:document-units="mm"
     inkscape:current-layer="layer1"
     showgrid="false"
     inkscape:window-width="1920"
     inkscape:window-height="1046"
     inkscape:window-x="-11"
     inkscape:window-y="-11"
     inkscape:window-maximized="1"
     fit-margin-top="0"
     fit-margin-left="0"
     fit-margin-right="0"
     fit-margin-bottom="0"
     inkscape:snap-global="true"
     inkscape:snap-midpoints="true"
     inkscape:snap-smooth-nodes="true" />
  <metadata
     id="metadata862">
    <rdf:RDF>
      <cc:Work
         rdf:about="">
        <dc:format>image/svg+xml</dc:format>
        <dc:type
           rdf:resource="http://purl.org/dc/dcmitype/StillImage" />
        <dc:title></dc:title>
      </cc:Work>
    </rdf:RDF>
  </metadata>
  <g
     inkscape:label="Ebene 1"
     inkscape:groupmode="layer"
     id="layer1"
     transform="translate(4.7157739,171.60852)">
    <path
       style="fill:#009a00;fill-opacity:1;fill-rule:evenodd;stroke:none;stroke-width:2.11666656;stroke-linecap:round;stroke-linejoin:round;stroke-miterlimit:4;stroke-dasharray:none;stroke-opacity:1"
       inkscape:connector-curvature="0"
       d="m 126.98483,-170.55019 -0.29865,94.538479 c -1.45404,37.54097 -30.182671,61.981429 -65.02248,62.002451 -34.80848,-0.0461 -63.547872,-24.4972 -65.022491,-62.002451 l -0.29865,-94.538479 h 65.319572 z"
       id="path10563-0-6-2-6-8-5"
       sodipodi:nodetypes="ccccccc" />
    <path
       style="fill:#ffffff;stroke:#000000;stroke-width:8.0000001;stroke-linecap:round;stroke-linejoin:round;stroke-miterlimit:4;stroke-dasharray:none;stroke-opacity:1"
       d="M 28.523438 76.332031 C 20.329822 76.369006 12.142513 77.472216 4.2382812 79.625 L 4.5058594 164.19336 C 20.188128 159.97269 36.977348 159.8849 52.685547 164.02539 C 69.803387 168.53745 85.214404 177.77826 101.06445 185.66211 C 116.9145 193.54596 134.11975 200.27451 151.78516 199.12891 C 169.44009 197.98399 185.53459 189.14471 201.11133 180.75586 C 216.68806 172.367 233.19079 164.02539 250.88281 164.02539 C 268.57483 164.02539 285.07756 172.367 300.6543 180.75586 C 316.23103 189.14471 332.32553 197.98399 349.98047 199.12891 C 367.64588 200.2745 384.85112 193.54596 400.70117 185.66211 C 416.55122 177.77826 431.96224 168.53745 449.08008 164.02539 C 464.78754 159.88509 481.57813 159.97133 497.25977 164.19141 L 497.52734 79.625 C 481.7691 75.333455 464.87708 75.220865 449.08008 79.384766 C 431.96224 83.896823 416.55122 93.135685 400.70117 101.01953 C 384.85112 108.90338 367.64588 115.63388 349.98047 114.48828 C 332.32553 113.34336 316.23103 104.50214 300.6543 96.113281 C 285.07756 87.724426 268.57483 79.384766 250.88281 79.384766 C 233.19079 79.384765 216.68806 87.724427 201.11133 96.113281 C 185.53459 104.50214 169.44009 113.34336 151.78516 114.48828 C 134.11975 115.63388 116.9145 108.90338 101.06445 101.01953 C 85.214404 93.135684 69.803387 83.896822 52.685547 79.384766 C 44.811659 77.309304 36.665528 76.295289 28.523438 76.332031 z "
       transform="matrix(0.26458333,0,0,0.26458333,-4.7157739,-171.60852)"
       id="path1085" />
    <path
       style="fill:none;fill-rule:evenodd;stroke:#000000;stroke-width:2.11666656;stroke-linecap:round;stroke-linejoin:round;stroke-miterlimit:4;stroke-dasharray:none;stroke-opacity:1"
       inkscape:connector-curvature="0"
       d="m 126.98483,-170.55019 -0.29865,94.538478 c -1.45404,37.54097 -30.182673,61.981429 -65.022481,62.00245 -34.80848,-0.0461 -63.54787,-24.497199 -65.02249,-62.00245 l -0.29865,-94.538478 h 65.31957 z"
       id="path10563-0-6-2-6-8"
       sodipodi:nodetypes="ccccccc" />
    <path
       style="fill:#ffd700;stroke:#000000;stroke-width:2.11666667;stroke-linecap:round;stroke-linejoin:round;stroke-miterlimit:4;stroke-dasharray:none;stroke-opacity:1;fill-opacity:1"
       d="m 48.14359,-76.298059 c -0.377828,0.0084 -0.750864,0.05652 -1.113626,0.169498 -0.498488,0.155244 -0.970177,0.442957 -1.263489,0.874882 -0.216402,0.318669 -0.326599,0.700955 -0.360185,1.084688 -0.03359,0.383733 0.0059,0.770707 0.06821,1.150834 0.178166,1.086922 0.544322,2.141559 1.069187,3.109889 0.530479,0.978691 1.223219,1.86958 2.041218,2.624645 H 60.73455 v -8.262027 c -3.571814,0.105902 -7.152748,-0.08914 -10.691854,-0.582911 -0.627174,-0.0875 -1.269392,-0.183499 -1.899108,-0.169498 z m 27.04021,0 c -0.629716,-0.014 -1.271934,0.08199 -1.899108,0.169498 -3.539106,0.493773 -7.12004,0.688813 -10.691854,0.582911 v 8.262027 h 12.149645 c 0.817999,-0.755065 1.510739,-1.645954 2.041218,-2.624645 0.524865,-0.96833 0.891021,-2.022967 1.069187,-3.109889 0.06231,-0.380127 0.101801,-0.767101 0.06821,-1.150834 -0.03359,-0.383733 -0.143264,-0.766019 -0.359667,-1.084688 -0.293312,-0.431925 -0.765519,-0.719638 -1.264007,-0.874882 -0.362762,-0.112977 -0.735798,-0.161097 -1.113626,-0.169498 z"
       id="path1146"
       inkscape:connector-curvature="0" />
    <path
       style="fill:#ffd700;stroke:#000000;stroke-width:2.11666667;stroke-linecap:round;stroke-linejoin:round;stroke-miterlimit:4;stroke-dasharray:none;stroke-opacity:1;fill-opacity:1"
       d="m 61.663953,-88.181054 c -0.807132,0.845584 -1.650918,1.656461 -2.527495,2.429825 -2.067245,1.823839 -4.323006,3.44303 -6.220291,5.443079 -1.143373,1.205299 -2.168684,2.582045 -2.624648,4.179589 -0.557226,1.952336 -0.21671,4.037835 0.194821,6.025988 1.802934,8.710166 4.895887,17.093237 7.289477,25.659932 1.616943,5.787059 2.915779,11.663217 3.888136,17.592725 0.972355,-5.929508 2.270676,-11.805666 3.887619,-17.592725 2.39359,-8.566695 5.486542,-16.949766 7.289477,-25.659932 0.41153,-1.988153 0.752046,-4.073652 0.19482,-6.025988 -0.455964,-1.597544 -1.481275,-2.97429 -2.624648,-4.179589 -1.897285,-2.000049 -4.153045,-3.61924 -6.22029,-5.443079 -0.876576,-0.773364 -1.719845,-1.584241 -2.526978,-2.429825 z"
       id="path1169"
       inkscape:connector-curvature="0" />
    <ellipse
       style="opacity:1;fill:#ffd700;fill-opacity:1;fill-rule:evenodd;stroke:#000000;stroke-width:2.11666667;stroke-linecap:round;stroke-linejoin:round;stroke-miterlimit:4;stroke-dasharray:none;stroke-opacity:1;paint-order:normal"
       id="path1192"
       cx="61.663696"
       cy="-98.726852"
       rx="7.7885399"
       ry="10.254231" />
    <rect
       style="opacity:1;fill:#ffd700;fill-opacity:1;fill-rule:evenodd;stroke:#000000;stroke-width:2.11666667;stroke-linecap:round;stroke-linejoin:round;stroke-miterlimit:4;stroke-dasharray:none;stroke-opacity:1;paint-order:normal"
       id="rect1194"
       width="24.882309"
       height="4.0822535"
       x="49.222542"
       y="-113.64651" />
    <path
       style="opacity:1;fill:#ffd700;fill-opacity:1;fill-rule:evenodd;stroke:#000000;stroke-width:2.11666667;stroke-linecap:round;stroke-linejoin:round;stroke-miterlimit:4;stroke-dasharray:none;stroke-opacity:1;paint-order:normal"
       d="m 52.527044,-120.10107 a 3.2273277,3.2273277 0 0 0 -3.227194,3.22719 3.2273277,3.2273277 0 0 0 3.227194,3.2272 3.2273277,3.2273277 0 0 0 3.227194,-3.2272 3.2273277,3.2273277 0 0 0 -3.227194,-3.22719 z m 9.136393,0 a 3.2273277,3.2273277 0 0 0 -3.227192,3.22719 3.2273277,3.2273277 0 0 0 3.227192,3.2272 3.2273277,3.2273277 0 0 0 3.22771,-3.2272 3.2273277,3.2273277 0 0 0 -3.22771,-3.22719 z m 9.136909,0 a 3.2273277,3.2273277 0 0 0 -3.22771,3.22719 3.2273277,3.2273277 0 0 0 3.22771,3.2272 3.2273277,3.2273277 0 0 0 3.227194,-3.2272 3.2273277,3.2273277 0 0 0 -3.227194,-3.22719 z"
       id="path1196"
       inkscape:connector-curvature="0" />
    <path
       style="fill:none;stroke:#000000;stroke-width:2.91041667;stroke-linecap:round;stroke-linejoin:round;stroke-miterlimit:4;stroke-dasharray:none;stroke-opacity:1"
       d="M 50.952745,-97.798453 H 72.374647"
       id="path1220"
       inkscape:connector-curvature="0" />
    <path
       style="fill:none;stroke:#000000;stroke-width:2.11666667;stroke-linecap:round;stroke-linejoin:round;stroke-miterlimit:4;stroke-dasharray:none;stroke-opacity:1"
       d="M 50.952745,-104.45303 H 72.374647"
       id="path1220-3"
       inkscape:connector-curvature="0" />
  </g>
</svg>

<svg xmlns="http://www.w3.org/2000/svg" width="501.766" height="599.651" viewBox="0 0 132.759 158.658"><g transform="translate(4.716 171.609)"><path style="fill:#009a00;fill-opacity:1;fill-rule:evenodd;stroke:none;stroke-width:2.11666656;stroke-linecap:round;stroke-linejoin:round;stroke-miterlimit:4;stroke-dasharray:none;stroke-opacity:1" d="m126.985-170.55-.299 94.538C125.232-38.47 96.504-14.03 61.664-14.009 26.855-14.055-1.884-38.506-3.36-76.012l-.298-94.538h65.32z"/><path style="fill:#fff;stroke:#000;stroke-width:8.0000001;stroke-linecap:round;stroke-linejoin:round;stroke-miterlimit:4;stroke-dasharray:none;stroke-opacity:1" d="M28.523 76.332a94.15 94.15 0 0 0-24.285 3.293l.268 84.568c15.682-4.22 32.471-4.308 48.18-.168 17.117 4.512 32.528 13.753 48.378 21.637 15.85 7.884 33.056 14.613 50.721 13.467 17.655-1.145 33.75-9.984 49.326-18.373 15.577-8.389 32.08-16.73 49.772-16.73s34.195 8.341 49.771 16.73c15.577 8.389 31.672 17.228 49.326 18.373 17.666 1.145 34.871-5.583 50.721-13.467 15.85-7.884 31.261-17.125 48.38-21.637 15.707-4.14 32.497-4.054 48.179.166l.267-84.566c-15.758-4.292-32.65-4.404-48.447-.24-17.118 4.512-32.529 13.75-48.379 21.635-15.85 7.883-33.055 14.614-50.72 13.468-17.655-1.145-33.75-9.986-49.327-18.375-15.576-8.389-32.08-16.728-49.771-16.728-17.692 0-34.195 8.34-49.772 16.728-15.576 8.39-31.67 17.23-49.326 18.375-17.665 1.146-34.87-5.585-50.72-13.468-15.85-7.884-31.262-17.123-48.38-21.635a93.257 93.257 0 0 0-24.162-3.053z" transform="matrix(.26458 0 0 .26458 -4.716 -171.609)"/><path style="fill:none;fill-rule:evenodd;stroke:#000;stroke-width:2.11666656;stroke-linecap:round;stroke-linejoin:round;stroke-miterlimit:4;stroke-dasharray:none;stroke-opacity:1" d="m126.985-170.55-.299 94.538C125.232-38.47 96.504-14.03 61.664-14.009 26.855-14.055-1.884-38.506-3.36-76.012l-.298-94.538h65.32z"/><path style="fill:gold;stroke:#000;stroke-width:2.11666667;stroke-linecap:round;stroke-linejoin:round;stroke-miterlimit:4;stroke-dasharray:none;stroke-opacity:1;fill-opacity:1" d="M48.144-76.298c-.378.008-.751.056-1.114.17-.499.155-.97.442-1.264.874a2.28 2.28 0 0 0-.36 1.085c-.033.384.006.77.069 1.15a9.907 9.907 0 0 0 1.069 3.11c.53.98 1.223 1.87 2.04 2.625h12.15v-8.262a63.75 63.75 0 0 1-10.691-.583c-.627-.087-1.27-.183-1.9-.17zm27.04 0c-.63-.014-1.272.082-1.9.17a63.75 63.75 0 0 1-10.691.582v8.262h12.15a10.185 10.185 0 0 0 2.04-2.624 9.907 9.907 0 0 0 1.07-3.11c.062-.38.102-.767.068-1.151a2.28 2.28 0 0 0-.36-1.085c-.293-.432-.765-.72-1.264-.875a4.023 4.023 0 0 0-1.113-.17z"/><path style="fill:gold;stroke:#000;stroke-width:2.11666667;stroke-linecap:round;stroke-linejoin:round;stroke-miterlimit:4;stroke-dasharray:none;stroke-opacity:1;fill-opacity:1" d="M61.664-88.181a40.915 40.915 0 0 1-2.528 2.43c-2.067 1.824-4.323 3.443-6.22 5.443-1.143 1.205-2.169 2.582-2.624 4.18-.558 1.952-.217 4.037.194 6.025 1.803 8.71 4.896 17.094 7.29 25.66a164.04 164.04 0 0 1 3.888 17.593c.972-5.93 2.27-11.806 3.888-17.593 2.393-8.566 5.486-16.95 7.289-25.66.412-1.988.752-4.073.195-6.026-.456-1.597-1.481-2.974-2.625-4.18-1.897-2-4.153-3.618-6.22-5.442a40.907 40.907 0 0 1-2.527-2.43z"/><ellipse style="opacity:1;fill:gold;fill-opacity:1;fill-rule:evenodd;stroke:#000;stroke-width:2.11666667;stroke-linecap:round;stroke-linejoin:round;stroke-miterlimit:4;stroke-dasharray:none;stroke-opacity:1;paint-order:normal" cx="61.664" cy="-98.727" rx="7.789" ry="10.254"/><path style="opacity:1;fill:gold;fill-opacity:1;fill-rule:evenodd;stroke:#000;stroke-width:2.11666667;stroke-linecap:round;stroke-linejoin:round;stroke-miterlimit:4;stroke-dasharray:none;stroke-opacity:1;paint-order:normal" d="M49.223-113.647h24.882v4.082H49.223z"/><path style="opacity:1;fill:gold;fill-opacity:1;fill-rule:evenodd;stroke:#000;stroke-width:2.11666667;stroke-linecap:round;stroke-linejoin:round;stroke-miterlimit:4;stroke-dasharray:none;stroke-opacity:1;paint-order:normal" d="M52.527-120.101a3.227 3.227 0 0 0-3.227 3.227 3.227 3.227 0 0 0 3.227 3.227 3.227 3.227 0 0 0 3.227-3.227 3.227 3.227 0 0 0-3.227-3.227zm9.136 0a3.227 3.227 0 0 0-3.227 3.227 3.227 3.227 0 0 0 3.227 3.227 3.227 3.227 0 0 0 3.228-3.227 3.227 3.227 0 0 0-3.228-3.227zm9.137 0a3.227 3.227 0 0 0-3.227 3.227 3.227 3.227 0 0 0 3.227 3.227 3.227 3.227 0 0 0 3.228-3.227A3.227 3.227 0 0 0 70.8-120.1z"/><path style="fill:none;stroke:#000;stroke-width:2.91041667;stroke-linecap:round;stroke-linejoin:round;stroke-miterlimit:4;stroke-dasharray:none;stroke-opacity:1" d="M50.953-97.798h21.422"/><path style="fill:none;stroke:#000;stroke-width:2.11666667;stroke-linecap:round;stroke-linejoin:round;stroke-miterlimit:4;stroke-dasharray:none;stroke-opacity:1" d="M50.953-104.453h21.422"/></g></svg>
